docs/get-started/store-and-retrieve/images/miner-paid-without-data-cap.svg

<svg version="1.1" xmlns="http://www.w3.org/2000/svg" viewBox="0 0 1288 211" width="1288" height="211">
  <!-- svg-source:excalidraw -->
  
  <defs>
    <style>
      @font-face {
        font-family: "Virgil";
        src: url("https://excalidraw.com/Virgil.woff2");
      }
      @font-face {
        font-family: "Cascadia";
        src: url("https://excalidraw.com/Cascadia.woff2");
      }
    </style>
  </defs>
  <g transform="translate(10 62) rotate(0 109 54)"><path d="M94.281244336406 0.6671735400753604 C108.20457734197713 -1.0489605877801698, 126.55177329931178 0.33152398366789404, 140.78438367035073 2.371971298284933 C155.0169940413897 4.412418612901972, 168.57683598614707 8.127277325809104, 179.67690656263972 12.909857427777595 C190.77697713913236 17.692437529746087, 201.0519381352694 24.18328362521179, 207.38480712930655 31.067451910095876 C213.7176761233437 37.95162019497997, 217.59420939090006 46.886611425535776, 217.6741205268625 54.21486713708212 C217.75403166282496 61.54312284862847, 213.89563958727882 68.5076022319289, 207.86427394508132 75.03698617937397 C201.83290830288382 81.56637012681904, 192.57538988494295 88.36954003382043, 181.4859266736775 93.39117082175252 C170.39646346241207 98.41280160968462, 155.754621140636 102.7283849622372, 141.32749467748874 105.16677090696658 C126.90036821434147 107.60515685169595, 109.70534054318955 108.90069598482829, 94.92316789479389 108.02148649012877 C80.14099524639823 107.14227699542924, 65.36339706815741 103.85966184512648, 52.63445878711475 99.89151393876944 C39.90552050607209 95.92336603241239, 26.912449923750955 90.22110410999728, 18.54953820853791 84.21259905198646 C10.186626493324864 78.20409399397563, 5.025681208986631 71.25714333952182, 2.4569884958364696 63.84048359070447 C-0.11170421731369151 56.42382384188713, -0.3130574040205567 46.96286133159562, 3.1373819296369447 39.71264055908239 C6.587821263294446 32.46241978656916, 13.802634328336017 25.91776674448066, 23.15962449778148 20.339158955625074 C32.51661466722694 14.760551166769488, 45.67127994032071 9.721734557872669, 59.27932294630972 6.24099382594887 C72.88736595229874 2.760253094025071, 95.68255936008403 0.22744262261376258, 104.80788253371556 -0.5452854359177195 C113.93320570734708 -1.3180134944492017, 114.1840232149344 0.4944215440622177, 114.0312619880989 1.6046254747599775 M106.56537911089231 -0.4340235044771106 C120.51089840357317 -1.587422898415312, 136.03772785358402 1.1642723848754137, 149.97085812542971 4.228516515061287 C163.9039883972754 7.29276064524716, 179.92180506311283 12.614385269471416, 190.1641607419665 17.95144127663813 C200.40651642082017 23.28849728380484, 206.73448447997484 29.33992379286955, 211.4249921985517 36.25085255806157 C216.11549991712857 43.161781323253585, 219.85856443842277 52.10101589626294, 218.30720705342776 59.41701386779024 C216.75584966843275 66.73301183931754, 209.94953830222852 73.92077696608648, 202.11684788858162 80.14684038722535 C194.28415747493472 86.37290380836423, 183.03242598623294 92.30360905983842, 171.31106457154635 96.77339439462347 C159.58970315685977 101.24317972940851, 146.4819818143455 105.46506649535436, 131.78867940046217 106.96555239593559 C117.09537698657886 108.46603829651681, 97.9314367383963 107.4463882613436, 83.15125008824646 105.77630979811079 C68.37106343809661 104.10623133487798, 54.756465575747576 101.50728902015034, 43.10755949956311 96.94508161653874 C31.458653423378642 92.38287421292715, 20.356539942306103 84.72999739898788, 13.257813631139655 78.40306537644122 C6.159087319973206 72.07613335389456, 1.4918261592835265 66.31883312861044, 0.5152016325644126 58.98348948125884 C-0.46142289415470117 51.64814583390724, 2.423918704159104 41.633708378989844, 7.398066470824972 34.391003492331635 C12.37221423749084 27.14829860567343, 20.05471713790228 20.543212484711187, 30.36008823255962 15.527260161309599 C40.66545932721696 10.51130783790801, 56.753267592884356 6.726203198423155, 69.23029303876899 4.295289551922096 C81.70731848465363 1.8643759054210371, 99.22969552783185 1.2490917203344445, 105.22224090786743 0.9417782823032468 C111.21478628790301 0.6344648442720491, 104.96140224998513 1.8117539296486078, 105.18556531898248 2.4514089237349097" stroke="#000000" stroke-width="1" fill="none"></path></g><g transform="translate(97.5 103) rotate(0 21.5 13)"><text x="21.5" y="18" font-family="Virgil, Segoe UI Emoji" font-size="20px" fill="#000000" text-anchor="middle" style="white-space: pre;" direction="ltr">User</text></g><g transform="translate(894 10) rotate(0 192 92)"><path d="M118.52087543578048 7.42529887840351 C135.12395030206258 2.587583266179542, 158.9087938238497 0.5945915008756136, 178.92341211099634 -0.27126201987100274 C198.93803039814298 -1.1371155406176192, 219.2427714327736 -0.21901748777601426, 238.60858515866045 2.2301777539238117 C257.9743988845473 4.679372995623638, 278.0775069070627 9.135200393575442, 295.1182944663175 14.423909430327953 C312.1590820255723 19.712618467080464, 328.0389266485636 26.377245786998554, 340.8533105141892 33.962431974438886 C353.66769437981486 41.547618161879214, 364.7511376831323 50.72394543872377, 372.00459766007134 59.935026554969944 C379.2580576370104 69.14610767121613, 383.70216220833316 79.55940775571756, 384.3740703758234 89.22891867191596 C385.04597854331365 98.89842958811437, 381.6305685818633 108.84182525487373, 376.0360466650128 117.95209205216034 C370.4415247481623 127.06235884944695, 362.39456089933145 135.88769160503264, 350.80693887472023 143.89051945563563 C339.219316850109 151.8933473062386, 322.63724319931833 160.16999717576056, 306.51031451734536 165.96905915577827 C290.3833858353724 171.76812113579598, 272.9159325237913 175.7655388215163, 254.0453667828825 178.68489133574195 C235.1748010419737 181.60424384996762, 213.6507632087717 183.4216062966627, 193.28692007189258 183.48517424113226 C172.92307693501346 183.5487421856018, 151.26628781154335 181.88380599069467, 131.86230796160766 179.06629900255925 C112.45832811167197 176.24879201442383, 92.91411829373025 172.1341589462632, 76.8630409722785 166.58013231231968 C60.81196365082674 161.02610567837615, 47.17339953772684 153.86444407390456, 35.55584403289714 145.74213919889812 C23.938288528067446 137.61983432389167, 13.128172146476242 127.18644581786533, 7.1577079433003234 117.84630306228104 C1.1872437401244058 108.50616030669674, -1.1171019721050706 99.25728434172348, -0.2669411861583626 89.70128266539234 C0.5832195997883455 80.1452809890612, 5.233378497363044 69.84001566249165, 12.258672658980572 60.51029300429421 C19.2839668205981 51.18057034609677, 29.527751497369174 41.49296930378994, 41.88482378354681 33.72294671620769 C54.24189606972444 25.95292412862543, 71.43146972498016 18.796055795780017, 86.40110637604636 13.890157478800674 C101.37074302711255 8.984259161821331, 122.05421605065987 5.659765225881365, 131.70264368994398 4.287556814331637 C141.3510713292281 2.915348402781909, 143.468318530911 4.050945839071763, 144.29167221175103 5.656907009502305 M162.0315970765722 2.4323819241395768 C180.58990198038364 -0.2059437317372761, 201.99266735526243 1.3306912387682033, 221.8958756551977 2.5251938779838667 C241.79908395513297 3.71969651719953, 263.3883000775267 5.230213171846107, 281.4508468761839 9.599397759433558 C299.5133936748411 13.968582347021009, 316.160486513776 21.903819713265385, 330.27115644714087 28.740301403508568 C344.38182638050574 35.57678309375175, 357.4647971679673 41.96036609265109, 366.11486647637315 50.61828790089265 C374.764935784779 59.276209709134214, 379.9134648604746 70.79840968469736, 382.17157229757606 80.68783225295792 C384.4296797346775 90.57725482121847, 383.73174095711 100.35504950314487, 379.6635110989817 109.95482331045602 C375.5952812408534 119.55459711776717, 367.7391225849834 129.90665227260567, 357.7621931488063 138.28647509682483 C347.7852637126292 146.666297921044, 334.6302299219246 153.89233627587248, 319.80193448191903 160.23376025577093 C304.9736390419135 166.57518423566938, 287.05058241633594 172.22875901036466, 268.792420508773 176.33501897621548 C250.53425860121 180.4412789420663, 230.48347798922984 184.0856431779722, 210.25296303654127 184.8713200508759 C190.0224480838527 185.65699692377962, 166.98347889563863 183.59548690059654, 147.40933079264153 181.0490802136378 C127.83518268964443 178.50267352667908, 109.80768013411121 174.4776284573152, 92.80807441855863 169.59287992912348 C75.80846870300606 164.70813140093176, 58.50637985934099 159.06558624539082, 45.41169649932604 151.74058904448748 C32.31701313931109 144.41559184358414, 21.53891915399006 134.73647704649557, 14.239974258468948 125.64289672370344 C6.941029362947835 116.54931640091134, 2.977886960065807 106.75132034795854, 1.6180271261993653 97.17910710773482 C0.25816729233292324 87.6068938675111, 0.8558576938386198 77.52414124868355, 6.080815255270295 68.20961728236115 C11.305772816701971 58.89509331603875, 21.69426649108771 49.34505913444489, 32.967772494789415 41.29196330980044 C44.24127849849112 33.238867485155986, 58.23541801125437 26.08725058538553, 73.72185127748051 19.89104233449443 C89.20828454370665 13.694834083603329, 111.2442698985478 7.232748006067611, 125.88637209214629 4.114713804453828 C140.52847428574478 0.9966796028400444, 155.49414054121897 1.4649227359225563, 161.57446443907142 1.1828371248117264 C167.65478833692387 0.9007515137008966, 162.10722614819613 0.6659319533491086, 162.36831547926096 2.422200137788849" stroke="#000000" stroke-width="1" fill="none"></path></g><g transform="translate(982.5 89) rotate(0 103.5 13)"><text x="103.5" y="18" font-family="Virgil, Segoe UI Emoji" font-size="20px" fill="#000000" text-anchor="middle" style="white-space: pre;" direction="ltr">The Filecoin Network</text></g><g transform="translate(459 25) rotate(0 103 88)"><path d="M-0.6904509682447858 -1.042294544056099 C73.11542090533955 -1.3831998152240406, 146.66837198561868 0.24635811560307647, 206.16711286680186 -0.011891407263224572 M0.04278215514235832 0.3995868767783668 C50.940481130157956 0.5545571551815475, 103.45605448330198 1.0583406687942112, 206.4393453569643 -0.4216299754378412 M207.75145786069334 0.6223935279995203 C206.22977992214263 40.80328136868775, 207.94883921064437 82.57905789650977, 207.8679252769798 174.62104509212077 M205.28902452159673 0.502681995742023 C208.31383062992245 57.374542233161634, 207.9672094443813 114.53854247760029, 206.15965290833265 176.6055381251499 M206.10895174245178 177.24789428931092 C145.78388483857765 175.30691502977604, 85.2831396884198 174.63089904027083, 1.6031792591741376 174.5564403947943 M205.5199152296132 176.73017665821155 C152.43839744894856 178.14451804894475, 98.63211035766729 177.38117512713032, 0.5972208142911348 176.4340322473703 M-1.9032158348709345 177.8684349451214 C-2.516663767024875 135.46239096410574, -0.0666741501539947 93.55077180303633, -1.496301183477044 0.04557237960398197 M0.6423060791566968 176.75674697291106 C0.4786250943318009 123.83461800199001, -0.2638872807845474 72.76560315918175, -0.879817227832973 0.3425952745601535" stroke="#000000" stroke-width="1" fill="none"></path></g><g transform="translate(538 100) rotate(0 24 13)"><text x="24" y="18" font-family="Virgil, Segoe UI Emoji" font-size="20px" fill="#000000" text-anchor="middle" style="white-space: pre;" direction="ltr">Miner</text></g><g><g transform="translate(235 120) rotate(0 109.55936842523514 0.6626238051429425)"><path d="M-0.5804116252809762 0.5504360619932414 C36.18855028512578 0.44414663948118693, 182.92919588846465 0.28139874376356605, 219.6991484757513 -0.003927009925246194 M1.3157335421070457 -0.2061889507994057 C37.98037916666518 -0.16391257192939532, 182.26340486095597 1.5727098724618553, 218.5931559618935 1.5314365610852838" stroke="#000000" stroke-width="1" fill="none"></path></g><g transform="translate(235 120) rotate(0 109.55936842523514 0.6626238051429425)"><path d="M191.25637616120358 11.114743164559384 C196.60193169250155 9.561553384351814, 200.9953715539499 9.143290313541304, 219.42992857325822 1.382159747593105 M191.27409820068706 12.575311071989615 C195.36728136688393 8.383420505956458, 201.4481091761002 6.854993056426867, 219.46044138208032 2.265954398959875" stroke="#000000" stroke-width="1" fill="none"></path></g><g transform="translate(235 120) rotate(0 109.55936842523514 0.6626238051429425)"><path d="M191.38426019704858 -9.406066957344086 C196.80958336515255 -6.367699299404509, 201.17440515574862 -2.1937863872254404, 219.42992857325822 1.382159747593105 M191.40198223653206 -7.945499049913854 C195.5803610461264 -7.767017536109002, 201.6339563596561 -4.925604219848598, 219.46044138208032 2.265954398959875" stroke="#000000" stroke-width="1" fill="none"></path></g></g><g><g transform="translate(890 110) rotate(0 -108.42560847902678 0.12310890192165402)"><path d="M-1.165620880946517 -0.08554416932165632 C-37.46622462434073 -0.19550821818411362, -180.89466135265926 -0.13148754872381688, -216.90259732566773 -0.07550730742514133 M0.42328942721709595 -1.1760588035546244 C-36.01815257027124 -1.1393862298689785, -180.942977431758 0.9430582764185964, -217.2745063852705 1.4222766073979436" stroke="#000000" stroke-width="1" fill="none"></path></g><g transform="translate(890 110) rotate(0 -108.42560847902678 0.12310890192165402)"><path d="M-189.3687999599739 -7.392683739486667 C-199.82074778028027 -4.190467142778538, -209.7981745911897 -1.4580614438845725, -217.85359193461017 0.38372443305328474 M-189.4046865894585 -9.676175590317282 C-198.23536162476665 -7.0089814786210916, -206.2385880788154 -3.0996175202758707, -217.80423590524123 0.8486181010119616" stroke="#000000" stroke-width="1" fill="none"></path></g><g transform="translate(890 110) rotate(0 -108.42560847902678 0.12310890192165402)"><path d="M-189.08904224246345 13.126617856945241 C-199.74583107000194 8.629626005678928, -209.8281909240897 3.6655406852412495, -217.85359193461017 0.38372443305328474 M-189.12492887194804 10.843126006114627 C-198.10503524710558 7.304420224611487, -206.19286032594948 5.008755373517775, -217.80423590524123 0.8486181010119616" stroke="#000000" stroke-width="1" fill="none"></path></g></g><g transform="translate(734 73) rotate(0 65 13)"><text x="0" y="18" font-family="Virgil, Segoe UI Emoji" font-size="20px" fill="#000000" text-anchor="start" style="white-space: pre;" direction="ltr">Pays 0.5 FIL</text></g><g transform="translate(275 87) rotate(0 57.5 13)"><text x="0" y="18" font-family="Virgil, Segoe UI Emoji" font-size="20px" fill="#000000" text-anchor="start" style="white-space: pre;" direction="ltr">Store 10GB</text></g></svg>

<?xml version="1.0" encoding="UTF-8"?>
<svg width="1288" height="211" version="1.1" viewBox="0 0 1288 211" xmlns="http://www.w3.org/2000/svg">
 <!-- svg-source:excalidraw -->
 <defs>
  <style>@font-face {
        font-family: "Virgil";
        src: url("https://excalidraw.com/Virgil.woff2");
      }
      @font-face {
        font-family: "Cascadia";
        src: url("https://excalidraw.com/Cascadia.woff2");
      }</style>
 </defs>
 <g transform="translate(10 62) rotate(0 109 54)">
  <path d="m94.281 0.66717c13.923-1.7161 32.271-0.33565 46.503 1.7048 14.233 2.0404 27.792 5.7553 38.893 10.538 11.1 4.7826 21.375 11.273 27.708 18.158 6.3329 6.8842 10.209 15.819 10.289 23.147 0.079911 7.3283-3.7785 14.293-9.8098 20.822s-15.289 13.333-26.378 18.354c-11.089 5.0216-25.731 9.3372-40.158 11.776-14.427 2.4384-31.622 3.7339-46.404 2.8547-14.782-0.87921-29.56-4.1618-42.289-8.13-12.729-3.9681-25.722-9.6704-34.085-15.679-8.3629-6.0085-13.524-12.955-16.093-20.372-2.5687-7.4167-2.77-16.878 0.68039-24.128 3.4504-7.2502 10.665-13.795 20.022-19.373 9.357-5.5786 22.512-10.617 36.12-14.098 13.608-3.4807 36.403-6.0136 45.529-6.7863 9.1253-0.77273 9.3761 1.0397 9.2234 2.1499m-7.4659-2.0386c13.946-1.1534 29.472 1.5983 43.405 4.6625 13.933 3.0642 29.951 8.3859 40.193 13.723 10.242 5.3371 16.57 11.388 21.261 18.299 4.6905 6.9109 8.4336 15.85 6.8822 23.166s-8.3577 14.504-16.19 20.73c-7.8327 6.2261-19.084 12.157-30.806 16.627-11.721 4.4698-24.829 8.6917-39.522 10.192-14.693 1.5005-33.857 0.48084-48.637-1.1892-14.78-1.6701-28.395-4.269-40.044-8.8312-11.649-4.5622-22.751-12.215-29.85-18.542-7.0987-6.3269-11.766-12.084-12.743-19.42-0.97662-7.3353 1.9087-17.35 6.8829-24.592 4.9741-7.2427 12.657-13.848 22.962-18.864 10.305-5.016 26.393-8.8011 38.87-11.232 12.477-2.4309 29.999-3.0462 35.992-3.3535s-0.26084 0.86998-0.036676 1.5096" fill="none" stroke="#000"/>
 </g>
 <g transform="translate(97.5 103) rotate(0 21.5 13)">
  <text x="21.5" y="18" fill="#000000" font-family="Virgil, Segoe UI Emoji" font-size="20px" text-anchor="middle" style="white-space:pre">User</text>
 </g>
 <g transform="translate(894 10) rotate(0 192 92)">
  <path d="m118.52 7.4253c16.603-4.8377 40.388-6.8307 60.403-7.6966 20.015-0.86585 40.319 0.052245 59.685 2.5014 19.366 2.4492 39.469 6.905 56.51 12.194s32.921 11.953 45.735 19.539c12.814 7.5852 23.898 16.762 31.151 25.973 7.2535 9.2111 11.698 19.624 12.369 29.294 0.67191 9.6695-2.7435 19.613-8.338 28.723s-13.641 17.936-25.229 25.938c-11.588 8.0028-28.17 16.279-44.297 22.079-16.127 5.7991-33.594 9.7965-52.465 12.716-18.871 2.9194-40.395 4.7367-60.758 4.8003-20.364 0.063568-42.021-1.6014-61.425-4.4189s-38.948-6.9321-54.999-12.486c-16.051-5.554-29.69-12.716-41.307-20.838-11.618-8.1223-22.428-18.556-28.398-27.896-5.9705-9.3401-8.2748-18.589-7.4246-28.145 0.85016-9.556 5.5003-19.861 12.526-29.191s17.269-19.017 29.626-26.787c12.357-7.77 29.547-14.927 44.516-19.833 14.97-4.9059 35.653-8.2304 45.302-9.6026 9.6484-1.3722 11.766-0.23661 12.589 1.3694m17.74-3.2245c18.558-2.6383 39.961-1.1017 59.864 0.092812 19.903 1.1945 41.492 2.705 59.555 7.0742s34.71 12.304 48.82 19.141c14.111 6.8365 27.194 13.22 35.844 21.878 8.6501 8.6579 13.799 20.18 16.057 30.07 2.2581 9.8894 1.5602 19.667-2.5081 29.267s-11.924 19.952-21.901 28.332c-9.9769 8.3798-23.132 15.606-37.96 21.947-14.828 6.3414-32.751 11.995-51.01 16.101-18.258 4.1063-38.309 7.7506-58.539 8.5363-20.231 0.78568-43.269-1.2758-62.844-3.8222-19.574-2.5464-37.602-6.5715-54.601-11.456-17-4.8847-34.302-10.527-47.396-17.852s-23.873-17.004-31.172-26.098c-7.2989-9.0936-11.262-18.892-12.622-28.464-1.3599-9.5722-0.76217-19.655 4.4628-28.969 5.225-9.3145 15.613-18.865 26.887-26.918 11.274-8.0531 25.268-15.205 40.754-21.401 15.486-6.1962 37.522-12.658 52.165-15.776 14.642-3.118 29.608-2.6498 35.688-2.9319 6.0803-0.28209 0.53276-0.51691 0.79385 1.2394" fill="none" stroke="#000"/>
 </g>
 <g transform="translate(982.5 89) rotate(0 103.5 13)">
  <text x="103.5" y="18" fill="#000000" font-family="Virgil, Segoe UI Emoji" font-size="20px" text-anchor="middle" style="white-space:pre">The Filecoin Network</text>
 </g>
 <g transform="translate(459 25) rotate(0 103 88)">
  <path d="m-0.69045-1.0423c73.806-0.34091 147.36 1.2887 206.86 1.0304m-206.12 0.41148c50.898 0.15497 103.41 0.65875 206.4-0.82122m1.3121 1.044c-1.5217 40.181 0.19738 81.957 0.11647 174m-2.5789-174.12c3.0248 56.872 2.6782 114.04 0.87063 176.1m-0.050701 0.64236c-60.325-1.941-120.83-2.617-204.51-2.6915m203.92 2.1737c-53.082 1.4143-106.89 0.651-204.92-0.29614m-2.5004 1.4344c-0.61345-42.406 1.8365-84.318 0.40691-177.82m2.1386 176.71c-0.16368-52.922-0.90619-103.99-1.5221-176.41" fill="none" stroke="#000"/>
 </g>
 <g transform="translate(538 100) rotate(0 24 13)">
  <text x="24" y="18" fill="#000000" font-family="Virgil, Segoe UI Emoji" font-size="20px" text-anchor="middle" style="white-space:pre">Miner</text>
 </g>
 <g transform="translate(235 120) rotate(0 109.56 .66262)" fill="none" stroke="#000">
  <path d="m-0.58041 0.55044c36.769-0.10629 183.51-0.26904 220.28-0.55436m-218.38-0.20226c36.665 0.042276 180.95 1.7789 217.28 1.7376"/>
  <path d="m191.26 11.115c5.3456-1.5532 9.739-1.9715 28.174-9.7326m-28.156 11.193c4.0932-4.1919 10.174-5.7203 28.186-10.309"/>
  <path d="m191.38-9.4061c5.4253 3.0384 9.7901 7.2123 28.046 10.788m-28.028-9.3277c4.1784 0.17848 10.232 3.0199 28.058 10.211"/>
 </g>
 <g transform="translate(890 110) rotate(0 -108.43 .12311)" fill="none" stroke="#000">
  <path d="m-1.1656-0.085544c-36.301-0.10996-179.73-0.045943-215.74 0.010037m217.33-1.1006c-36.441 0.036673-181.37 2.1191-217.7 2.5983"/>
  <path d="m-189.37-7.3927c-10.452 3.2022-20.429 5.9346-28.485 7.7764m28.449-10.06c-8.8307 2.6672-16.834 6.5766-28.4 10.525"/>
  <path d="m-189.09 13.127c-10.657-4.497-20.739-9.4611-28.765-12.743m28.729 10.459c-8.9801-3.5387-17.068-5.8344-28.679-9.9945"/>
 </g>
 <g transform="translate(734 73) rotate(0 65 13)">
  <text y="18" fill="#000000" font-family="Virgil, Segoe UI Emoji" font-size="20px" style="white-space:pre">Pays 0.5 FIL</text>
 </g>
 <g transform="translate(275 87) rotate(0 57.5 13)">
  <text y="18" fill="#000000" font-family="Virgil, Segoe UI Emoji" font-size="20px" style="white-space:pre">Store 10GB</text>
 </g>
</svg>
